X: 1
T: Z\^arz\^ariz\^a, z\^arz\^area
O: Romania
Z: 2014 John Chambers <jc:trillian.mit.edu>
S: handwritten copy from Yaron Shragai
N: "Grup vocal"
Q: "Allegretto"
M: 2/4
L: 1/8
K: C
"B"|:\
"C"Gc c2 | "F"GA A2 | "G7"GA ~GF | "C"ED C2 |\
"G7"GA ~GF | ED GF | "C"~EE "F7"DD | "C"C4 :|
"A"|:\
"C"GG AB | c2 d2 | dc- c2- | c4 |\
"Gm"c_B AG | "D7"(A2 c)_B | "Gm"AG- G2- | "G7"G4 :|
